images/50649067.svg

<?xml version="1.0" encoding="UTF-8"?>
<svg xmlns="http://www.w3.org/2000/svg" xmlns:xlink="http://www.w3.org/1999/xlink" width="300pt" height="300pt" viewBox="0 0 300 300" version="1.1">
<defs>
<g>
<symbol overflow="visible" id="glyph0-0">
<path style="stroke:none;" d="M 0.546875 1.9375 L 0.546875 -7.75 L 6.046875 -7.75 L 6.046875 1.9375 Z M 1.171875 1.328125 L 5.4375 1.328125 L 5.4375 -7.140625 L 1.171875 -7.140625 Z M 1.171875 1.328125 "/>
</symbol>
<symbol overflow="visible" id="glyph0-1">
<path style="stroke:none;" d="M 4.328125 -7.28125 C 3.546875 -7.28125 2.921875 -6.984375 2.453125 -6.390625 C 1.992188 -5.804688 1.765625 -5.007812 1.765625 -4 C 1.765625 -2.988281 1.992188 -2.1875 2.453125 -1.59375 C 2.921875 -1.007812 3.546875 -0.71875 4.328125 -0.71875 C 5.117188 -0.71875 5.742188 -1.007812 6.203125 -1.59375 C 6.660156 -2.1875 6.890625 -2.988281 6.890625 -4 C 6.890625 -5.007812 6.660156 -5.804688 6.203125 -6.390625 C 5.742188 -6.984375 5.117188 -7.28125 4.328125 -7.28125 Z M 4.328125 -8.171875 C 5.453125 -8.171875 6.351562 -7.789062 7.03125 -7.03125 C 7.707031 -6.28125 8.046875 -5.269531 8.046875 -4 C 8.046875 -2.738281 7.707031 -1.726562 7.03125 -0.96875 C 6.351562 -0.21875 5.453125 0.15625 4.328125 0.15625 C 3.203125 0.15625 2.300781 -0.21875 1.625 -0.96875 C 0.957031 -1.71875 0.625 -2.726562 0.625 -4 C 0.625 -5.269531 0.957031 -6.28125 1.625 -7.03125 C 2.300781 -7.789062 3.203125 -8.171875 4.328125 -8.171875 Z M 4.328125 -8.171875 "/>
</symbol>
<symbol overflow="visible" id="glyph0-2">
<path style="stroke:none;" d="M 1.078125 -8.015625 L 2.171875 -8.015625 L 2.171875 -4.734375 L 6.109375 -4.734375 L 6.109375 -8.015625 L 7.1875 -8.015625 L 7.1875 0 L 6.109375 0 L 6.109375 -3.8125 L 2.171875 -3.8125 L 2.171875 0 L 1.078125 0 Z M 1.078125 -8.015625 "/>
</symbol>
<symbol overflow="visible" id="glyph0-3">
<path style="stroke:none;" d="M 1.078125 -8.015625 L 2.546875 -8.015625 L 6.09375 -1.3125 L 6.09375 -8.015625 L 7.15625 -8.015625 L 7.15625 0 L 5.6875 0 L 2.125 -6.703125 L 2.125 0 L 1.078125 0 Z M 1.078125 -8.015625 "/>
</symbol>
<symbol overflow="visible" id="glyph1-0">
<path style="stroke:none;" d="M 0.453125 1.59375 L 0.453125 -6.34375 L 4.953125 -6.34375 L 4.953125 1.59375 Z M 0.953125 1.09375 L 4.453125 1.09375 L 4.453125 -5.84375 L 0.953125 -5.84375 Z M 0.953125 1.09375 "/>
</symbol>
<symbol overflow="visible" id="glyph1-1">
<path style="stroke:none;" d="M 1.734375 -0.75 L 4.828125 -0.75 L 4.828125 0 L 0.65625 0 L 0.65625 -0.75 C 1 -1.09375 1.457031 -1.554688 2.03125 -2.140625 C 2.613281 -2.734375 2.984375 -3.113281 3.140625 -3.28125 C 3.421875 -3.601562 3.613281 -3.875 3.71875 -4.09375 C 3.832031 -4.320312 3.890625 -4.539062 3.890625 -4.75 C 3.890625 -5.101562 3.769531 -5.390625 3.53125 -5.609375 C 3.289062 -5.828125 2.972656 -5.9375 2.578125 -5.9375 C 2.296875 -5.9375 2 -5.882812 1.6875 -5.78125 C 1.382812 -5.6875 1.054688 -5.539062 0.703125 -5.34375 L 0.703125 -6.25 C 1.054688 -6.382812 1.390625 -6.488281 1.703125 -6.5625 C 2.015625 -6.644531 2.300781 -6.6875 2.5625 -6.6875 C 3.238281 -6.6875 3.78125 -6.515625 4.1875 -6.171875 C 4.59375 -5.828125 4.796875 -5.375 4.796875 -4.8125 C 4.796875 -4.539062 4.742188 -4.28125 4.640625 -4.03125 C 4.535156 -3.789062 4.351562 -3.507812 4.09375 -3.1875 C 4.019531 -3.101562 3.785156 -2.859375 3.390625 -2.453125 C 2.992188 -2.046875 2.441406 -1.476562 1.734375 -0.75 Z M 1.734375 -0.75 "/>
</symbol>
</g>
</defs>
<g id="surface13221">
<rect x="0" y="0" width="300" height="300" style="fill:rgb(100%,100%,100%);fill-opacity:1;stroke:none;"/>
<path style="fill:none;stroke-width:1.2;stroke-linecap:butt;stroke-linejoin:miter;stroke:rgb(100%,0%,0%);stroke-opacity:1;stroke-miterlimit:10;" d="M 192.003906 216.871094 L 180.964844 209.246094 "/>
<path style="fill:none;stroke-width:1.2;stroke-linecap:butt;stroke-linejoin:miter;stroke:rgb(0%,0%,0%);stroke-opacity:1;stroke-miterlimit:10;" d="M 180.964844 209.246094 L 169.921875 201.617188 "/>
<path style=" stroke:none;fill-rule:nonzero;fill:rgb(100%,100%,100%);fill-opacity:1;" d="M 184.003906 210.371094 L 201.003906 210.371094 L 201.003906 223.371094 L 184.003906 223.371094 Z M 184.003906 210.371094 "/>
<g style="fill:rgb(100%,0%,0%);fill-opacity:1;">
  <use xlink:href="#glyph0-1" x="184.003906" y="220.272461"/>
  <use xlink:href="#glyph0-2" x="192.404297" y="220.272461"/>
</g>
<path style="fill:none;stroke-width:1.2;stroke-linecap:butt;stroke-linejoin:miter;stroke:rgb(0%,0%,0%);stroke-opacity:1;stroke-miterlimit:10;" d="M 169.921875 201.617188 L 145.675781 213.113281 "/>
<path style="fill:none;stroke-width:1.2;stroke-linecap:butt;stroke-linejoin:miter;stroke:rgb(0%,0%,0%);stroke-opacity:1;stroke-miterlimit:10;" d="M 164.792969 197.0625 L 145.394531 206.257812 "/>
<path style="fill:none;stroke-width:1.2;stroke-linecap:butt;stroke-linejoin:miter;stroke:rgb(0%,0%,0%);stroke-opacity:1;stroke-miterlimit:10;" d="M 172.089844 174.871094 L 169.921875 201.617188 "/>
<path style="fill:none;stroke-width:1.2;stroke-linecap:butt;stroke-linejoin:miter;stroke:rgb(0%,0%,0%);stroke-opacity:1;stroke-miterlimit:10;" d="M 145.675781 213.113281 L 123.59375 197.863281 "/>
<path style="fill:none;stroke-width:1.2;stroke-linecap:butt;stroke-linejoin:miter;stroke:rgb(0%,0%,0%);stroke-opacity:1;stroke-miterlimit:10;" d="M 123.59375 197.863281 L 125.761719 171.113281 "/>
<path style="fill:none;stroke-width:1.2;stroke-linecap:butt;stroke-linejoin:miter;stroke:rgb(0%,0%,0%);stroke-opacity:1;stroke-miterlimit:10;" d="M 130.105469 195.695312 L 131.839844 174.296875 "/>
<path style="fill:none;stroke-width:1.2;stroke-linecap:butt;stroke-linejoin:miter;stroke:rgb(0%,0%,0%);stroke-opacity:1;stroke-miterlimit:10;" d="M 125.761719 171.113281 L 114.722656 163.488281 "/>
<path style="fill:none;stroke-width:1.2;stroke-linecap:butt;stroke-linejoin:miter;stroke:rgb(0%,0%,100%);stroke-opacity:1;stroke-miterlimit:10;" d="M 114.722656 163.488281 L 103.683594 155.859375 "/>
<path style="fill:none;stroke-width:1.2;stroke-linecap:butt;stroke-linejoin:miter;stroke:rgb(0%,0%,0%);stroke-opacity:1;stroke-miterlimit:10;" d="M 125.761719 171.113281 L 150.011719 159.617188 "/>
<path style="fill:none;stroke-width:1.2;stroke-linecap:butt;stroke-linejoin:miter;stroke:rgb(0%,0%,100%);stroke-opacity:1;stroke-miterlimit:10;" d="M 103.683594 155.859375 L 91.023438 160.308594 "/>
<path style="fill:none;stroke-width:1.2;stroke-linecap:butt;stroke-linejoin:miter;stroke:rgb(0%,0%,0%);stroke-opacity:1;stroke-miterlimit:10;" d="M 91.023438 160.308594 L 78.363281 164.757812 "/>
<path style="fill:none;stroke-width:1.2;stroke-linecap:butt;stroke-linejoin:miter;stroke:rgb(0%,0%,0%);stroke-opacity:1;stroke-miterlimit:10;" d="M 103.042969 129.03125 L 103.363281 142.445312 "/>
<path style="fill:none;stroke-width:1.2;stroke-linecap:butt;stroke-linejoin:miter;stroke:rgb(0%,0%,100%);stroke-opacity:1;stroke-miterlimit:10;" d="M 103.363281 142.445312 L 103.683594 155.859375 "/>
<path style=" stroke:none;fill-rule:nonzero;fill:rgb(100%,100%,100%);fill-opacity:1;" d="M 99.683594 149.359375 L 107.683594 149.359375 L 107.683594 162.359375 L 99.683594 162.359375 Z M 99.683594 149.359375 "/>
<g style="fill:rgb(0%,0%,100%);fill-opacity:1;">
  <use xlink:href="#glyph0-3" x="99.683594" y="159.260742"/>
</g>
<path style="fill:none;stroke-width:1.2;stroke-linecap:butt;stroke-linejoin:miter;stroke:rgb(0%,0%,0%);stroke-opacity:1;stroke-miterlimit:10;" d="M 78.363281 164.757812 L 62.078125 143.429688 "/>
<path style="fill:none;stroke-width:1;stroke-linecap:butt;stroke-linejoin:miter;stroke:rgb(0%,0%,0%);stroke-opacity:1;stroke-miterlimit:10;" d="M 62.078125 143.429688 L 62.078125 143.429688 M 59.113281 142.980469 L 59.136719 144.023438 M 56.144531 142.527344 L 56.195312 144.613281 M 53.179688 142.078125 L 53.253906 145.207031 M 50.214844 141.628906 L 50.3125 145.796875 M 47.25 141.175781 L 47.371094 146.386719 M 44.28125 140.726562 L 44.433594 146.980469 M 41.316406 140.273438 L 41.492188 147.570312 M 38.351562 139.824219 L 38.550781 148.164062 M 35.386719 139.371094 L 35.609375 148.753906 M 35.136719 139.335938 L 35.363281 148.804688 "/>
<path style="fill:none;stroke-width:1.2;stroke-linecap:butt;stroke-linejoin:miter;stroke:rgb(0%,0%,0%);stroke-opacity:1;stroke-miterlimit:10;" d="M 62.078125 143.429688 L 77.332031 121.351562 "/>
<path style=" stroke:none;fill-rule:nonzero;fill:rgb(100%,100%,100%);fill-opacity:1;" d="M 18.25 137.570312 L 35.25 137.570312 L 35.25 150.570312 L 18.25 150.570312 Z M 18.25 137.570312 "/>
<g style="fill:rgb(100%,0%,0%);fill-opacity:1;">
  <use xlink:href="#glyph0-2" x="18.25" y="147.47168"/>
  <use xlink:href="#glyph0-1" x="26.274414" y="147.47168"/>
</g>
<path style=" stroke:none;fill-rule:nonzero;fill:rgb(0%,0%,0%);fill-opacity:1;" d="M 77.332031 121.351562 L 72.898438 94.460938 L 63.964844 97.601562 Z M 77.332031 121.351562 "/>
<path style="fill:none;stroke-width:1.2;stroke-linecap:butt;stroke-linejoin:miter;stroke:rgb(0%,0%,0%);stroke-opacity:1;stroke-miterlimit:10;" d="M 77.332031 121.351562 L 103.042969 129.03125 "/>
<path style=" stroke:none;fill-rule:nonzero;fill:rgb(100%,100%,100%);fill-opacity:1;" d="M 51.433594 89.53125 L 68.433594 89.53125 L 68.433594 102.53125 L 51.433594 102.53125 Z M 51.433594 89.53125 "/>
<g style="fill:rgb(100%,0%,0%);fill-opacity:1;">
  <use xlink:href="#glyph0-2" x="51.433594" y="99.432617"/>
  <use xlink:href="#glyph0-1" x="59.458008" y="99.432617"/>
</g>
<path style="fill:none;stroke-width:1.2;stroke-linecap:butt;stroke-linejoin:miter;stroke:rgb(0%,0%,0%);stroke-opacity:1;stroke-miterlimit:10;" d="M 150.011719 159.617188 L 172.089844 174.871094 "/>
<path style="fill:none;stroke-width:1.2;stroke-linecap:butt;stroke-linejoin:miter;stroke:rgb(0%,0%,0%);stroke-opacity:1;stroke-miterlimit:10;" d="M 148.628906 166.339844 L 166.292969 178.539062 "/>
<path style="fill:none;stroke-width:1.2;stroke-linecap:butt;stroke-linejoin:miter;stroke:rgb(0%,0%,0%);stroke-opacity:1;stroke-miterlimit:10;" d="M 172.089844 174.871094 L 196.339844 163.375 "/>
<path style="fill:none;stroke-width:1.2;stroke-linecap:butt;stroke-linejoin:miter;stroke:rgb(0%,0%,0%);stroke-opacity:1;stroke-miterlimit:10;" d="M 196.339844 163.375 L 207.378906 171 "/>
<path style="fill:none;stroke-width:1.2;stroke-linecap:butt;stroke-linejoin:miter;stroke:rgb(0%,0%,100%);stroke-opacity:1;stroke-miterlimit:10;" d="M 207.378906 171 L 218.421875 178.625 "/>
<path style="fill:none;stroke-width:1.2;stroke-linecap:butt;stroke-linejoin:miter;stroke:rgb(0%,0%,0%);stroke-opacity:1;stroke-miterlimit:10;" d="M 202.136719 159.703125 L 210.96875 165.804688 "/>
<path style="fill:none;stroke-width:1.2;stroke-linecap:butt;stroke-linejoin:miter;stroke:rgb(0%,0%,100%);stroke-opacity:1;stroke-miterlimit:10;" d="M 210.96875 165.804688 L 219.800781 171.90625 "/>
<path style="fill:none;stroke-width:1.2;stroke-linecap:butt;stroke-linejoin:miter;stroke:rgb(0%,0%,0%);stroke-opacity:1;stroke-miterlimit:10;" d="M 198.507812 136.625 L 196.339844 163.375 "/>
<path style="fill:none;stroke-width:1.2;stroke-linecap:butt;stroke-linejoin:miter;stroke:rgb(0%,0%,100%);stroke-opacity:1;stroke-miterlimit:10;" d="M 218.421875 178.625 L 230.546875 172.878906 "/>
<path style="fill:none;stroke-width:1.2;stroke-linecap:butt;stroke-linejoin:miter;stroke:rgb(0%,0%,0%);stroke-opacity:1;stroke-miterlimit:10;" d="M 230.546875 172.878906 L 242.667969 167.128906 "/>
<path style=" stroke:none;fill-rule:nonzero;fill:rgb(100%,100%,100%);fill-opacity:1;" d="M 214.421875 172.125 L 222.421875 172.125 L 222.421875 185.125 L 214.421875 185.125 Z M 214.421875 172.125 "/>
<g style="fill:rgb(0%,0%,100%);fill-opacity:1;">
  <use xlink:href="#glyph0-3" x="214.421875" y="182.026367"/>
</g>
<path style="fill:none;stroke-width:1.2;stroke-linecap:butt;stroke-linejoin:miter;stroke:rgb(0%,0%,0%);stroke-opacity:1;stroke-miterlimit:10;" d="M 242.667969 167.128906 L 243.753906 153.757812 "/>
<path style="fill:none;stroke-width:1.2;stroke-linecap:butt;stroke-linejoin:miter;stroke:rgb(0%,0%,100%);stroke-opacity:1;stroke-miterlimit:10;" d="M 243.753906 153.757812 L 244.839844 140.382812 "/>
<path style="fill:none;stroke-width:1.2;stroke-linecap:butt;stroke-linejoin:miter;stroke:rgb(0%,0%,0%);stroke-opacity:1;stroke-miterlimit:10;" d="M 236.59375 163.945312 L 237.460938 153.246094 "/>
<path style="fill:none;stroke-width:1.2;stroke-linecap:butt;stroke-linejoin:miter;stroke:rgb(0%,0%,100%);stroke-opacity:1;stroke-miterlimit:10;" d="M 237.460938 153.246094 L 238.328125 142.546875 "/>
<path style="fill:none;stroke-width:1.2;stroke-linecap:butt;stroke-linejoin:miter;stroke:rgb(0%,0%,0%);stroke-opacity:1;stroke-miterlimit:10;" d="M 242.667969 167.128906 L 253.710938 174.757812 "/>
<path style="fill:none;stroke-width:1.2;stroke-linecap:butt;stroke-linejoin:miter;stroke:rgb(0%,0%,100%);stroke-opacity:1;stroke-miterlimit:10;" d="M 253.710938 174.757812 L 264.75 182.382812 "/>
<path style="fill:none;stroke-width:1.2;stroke-linecap:butt;stroke-linejoin:miter;stroke:rgb(0%,0%,100%);stroke-opacity:1;stroke-miterlimit:10;" d="M 244.839844 140.382812 L 233.796875 132.757812 "/>
<path style="fill:none;stroke-width:1.2;stroke-linecap:butt;stroke-linejoin:miter;stroke:rgb(0%,0%,0%);stroke-opacity:1;stroke-miterlimit:10;" d="M 233.796875 132.757812 L 222.757812 125.128906 "/>
<path style=" stroke:none;fill-rule:nonzero;fill:rgb(100%,100%,100%);fill-opacity:1;" d="M 240.839844 133.882812 L 248.839844 133.882812 L 248.839844 146.882812 L 240.839844 146.882812 Z M 240.839844 133.882812 "/>
<g style="fill:rgb(0%,0%,100%);fill-opacity:1;">
  <use xlink:href="#glyph0-3" x="240.839844" y="143.78418"/>
</g>
<path style="fill:none;stroke-width:1.2;stroke-linecap:butt;stroke-linejoin:miter;stroke:rgb(0%,0%,0%);stroke-opacity:1;stroke-miterlimit:10;" d="M 222.757812 125.128906 L 198.507812 136.625 "/>
<path style="fill:none;stroke-width:1.2;stroke-linecap:butt;stroke-linejoin:miter;stroke:rgb(0%,0%,0%);stroke-opacity:1;stroke-miterlimit:10;" d="M 223.039062 131.984375 L 203.640625 141.183594 "/>
<path style="fill:none;stroke-width:1.2;stroke-linecap:butt;stroke-linejoin:miter;stroke:rgb(0%,0%,0%);stroke-opacity:1;stroke-miterlimit:10;" d="M 222.757812 125.128906 L 224.925781 98.382812 "/>
<path style="fill:none;stroke-width:1.2;stroke-linecap:butt;stroke-linejoin:miter;stroke:rgb(0%,0%,0%);stroke-opacity:1;stroke-miterlimit:10;" d="M 224.925781 98.382812 L 249.175781 86.886719 "/>
<path style="fill:none;stroke-width:1.2;stroke-linecap:butt;stroke-linejoin:miter;stroke:rgb(0%,0%,0%);stroke-opacity:1;stroke-miterlimit:10;" d="M 224.925781 98.382812 L 202.847656 83.128906 "/>
<path style=" stroke:none;fill-rule:nonzero;fill:rgb(100%,100%,100%);fill-opacity:1;" d="M 253.75 173.882812 L 275.75 173.882812 L 275.75 190.882812 L 253.75 190.882812 Z M 253.75 173.882812 "/>
<g style="fill:rgb(0%,0%,100%);fill-opacity:1;">
  <use xlink:href="#glyph0-3" x="253.75" y="183.78418"/>
  <use xlink:href="#glyph0-2" x="261.733398" y="183.78418"/>
</g>
<g style="fill:rgb(0%,0%,100%);fill-opacity:1;">
  <use xlink:href="#glyph1-1" x="269.757812" y="188.666992"/>
</g>
</g>
</svg>

<svg xmlns="http://www.w3.org/2000/svg" xmlns:xlink="http://www.w3.org/1999/xlink" width="300pt" height="300pt" viewBox="0 0 300 300"><defs><symbol overflow="visible"><path d="M.547 1.938V-7.75h5.5v9.688zm.625-.61h4.266v-8.47H1.171zm0 0"/></symbol><symbol overflow="visible" id="a"><path d="M4.328-7.28c-.78 0-1.406.296-1.875.89-.46.585-.687 1.382-.687 2.39 0 1.012.226 1.813.687 2.406.47.586 1.094.875 1.875.875.79 0 1.414-.288 1.875-.874.457-.593.688-1.394.688-2.406 0-1.008-.23-1.805-.687-2.39-.46-.594-1.086-.89-1.875-.89zm0-.892c1.125 0 2.024.383 2.703 1.14C7.708-6.28 8.048-5.27 8.048-4c0 1.262-.34 2.273-1.016 3.03C6.353-.22 5.454.157 4.33.157S2.3-.22 1.625-.97c-.668-.75-1-1.757-1-3.03 0-1.27.332-2.28 1-3.03.676-.76 1.578-1.142 2.703-1.142zm0 0"/></symbol><symbol overflow="visible" id="b"><path d="M1.078-8.016h1.094v3.282H6.11v-3.282h1.077V0H6.11v-3.813H2.17V0H1.078zm0 0"/></symbol><symbol overflow="visible" id="c"><path d="M1.078-8.016h1.47l3.546 6.704v-6.704h1.062V0H5.688L2.124-6.703V0H1.078zm0 0"/></symbol><symbol overflow="visible"><path d="M.453 1.594v-7.938h4.5v7.938zm.5-.5h3.5v-6.938h-3.5zm0 0"/></symbol><symbol overflow="visible" id="d"><path d="M1.734-.75h3.094V0H.656v-.75c.344-.344.8-.805 1.375-1.39.583-.594.954-.973 1.11-1.14.282-.322.473-.595.58-.814.112-.226.17-.445.17-.656 0-.352-.12-.64-.36-.86-.24-.218-.557-.327-.952-.327-.28 0-.578.054-.89.156-.305.093-.633.24-.985.436v-.906c.352-.133.688-.238 1-.313.313-.082.598-.125.86-.125.675 0 1.218.172 1.624.516.407.344.61.797.61 1.36 0 .273-.055.53-.156.78-.105.243-.288.524-.546.845-.074.085-.31.328-.703.734-.398.406-.95.976-1.656 1.703zm0 0"/></symbol></defs><g><path fill="#fff" d="M0 0h300v300H0z"/><path d="M192.004 216.87l-11.04-7.624" stroke-width="1.2" stroke="#f00" stroke-miterlimit="10" fill="none"/><path d="M180.965 209.246l-11.043-7.63" stroke-width="1.2" stroke="#000" stroke-miterlimit="10" fill="none"/><path d="M184.004 210.37h17v13h-17zm0 0" fill="#fff"/><g fill="#f00"><use xlink:href="#a" x="184.004" y="220.272"/><use xlink:href="#b" x="192.404" y="220.272"/></g><path d="M169.922 201.617l-24.246 11.496M164.793 197.063l-19.398 9.195M172.09 174.87l-2.168 26.747M145.676 213.113l-22.082-15.25M123.594 197.863l2.168-26.75M130.105 195.695l1.735-21.398M125.762 171.113l-11.04-7.625" stroke-width="1.2" stroke="#000" stroke-miterlimit="10" fill="none"/><path d="M114.723 163.488l-11.04-7.63" stroke-width="1.2" stroke="#00f" stroke-miterlimit="10" fill="none"/><path d="M125.762 171.113l24.25-11.496" stroke-width="1.2" stroke="#000" stroke-miterlimit="10" fill="none"/><path d="M103.684 155.86l-12.66 4.45" stroke-width="1.2" stroke="#00f" stroke-miterlimit="10" fill="none"/><path d="M91.023 160.31l-12.66 4.448M103.043 129.03l.32 13.415" stroke-width="1.2" stroke="#000" stroke-miterlimit="10" fill="none"/><path d="M103.363 142.445l.32 13.414" stroke-width="1.2" stroke="#00f" stroke-miterlimit="10" fill="none"/><path d="M99.684 149.36h8v13h-8zm0 0" fill="#fff"/><use xlink:href="#c" x="99.684" y="159.261" fill="#00f"/><path d="M78.363 164.758L62.078 143.43" stroke-width="1.2" stroke="#000" stroke-miterlimit="10" fill="none"/><path d="M62.078 143.43m-2.965-.45l.024 1.043m-2.992-1.496l.05 2.086m-3.015-2.535l.074 3.13m-3.04-3.58l.1 4.17m-3.064-4.622l.12 5.21m-3.09-5.66l.154 6.254m-3.118-6.707l.176 7.297m-3.14-7.746l.2 8.34m-3.165-8.793l.222 9.384m-.473-9.418l.226 9.47" stroke="#000" stroke-miterlimit="10" fill="none"/><path d="M62.078 143.43l15.254-22.078" stroke-width="1.2" stroke="#000" stroke-miterlimit="10" fill="none"/><path d="M18.25 137.57h17v13h-17zm0 0" fill="#fff"/><g fill="#f00"><use xlink:href="#b" x="18.25" y="147.472"/><use xlink:href="#a" x="26.274" y="147.472"/></g><path d="M77.332 121.352l-4.434-26.89-8.933 3.14zm0 0"/><path d="M77.332 121.352l25.71 7.68" stroke-width="1.2" stroke="#000" stroke-miterlimit="10" fill="none"/><path d="M51.434 89.53h17v13h-17zm0 0" fill="#fff"/><g fill="#f00"><use xlink:href="#b" x="51.434" y="99.433"/><use xlink:href="#a" x="59.458" y="99.433"/></g><path d="M150.012 159.617l22.078 15.254M148.63 166.34l17.663 12.2M172.09 174.87l24.25-11.495M196.34 163.375L207.38 171" stroke-width="1.2" stroke="#000" stroke-miterlimit="10" fill="none"/><path d="M207.38 171l11.042 7.625" stroke-width="1.2" stroke="#00f" stroke-miterlimit="10" fill="none"/><path d="M202.137 159.703l8.832 6.102" stroke-width="1.2" stroke="#000" stroke-miterlimit="10" fill="none"/><path d="M210.97 165.805l8.83 6.1" stroke-width="1.2" stroke="#00f" stroke-miterlimit="10" fill="none"/><path d="M198.508 136.625l-2.168 26.75" stroke-width="1.2" stroke="#000" stroke-miterlimit="10" fill="none"/><path d="M218.422 178.625l12.125-5.746" stroke-width="1.2" stroke="#00f" stroke-miterlimit="10" fill="none"/><path d="M230.547 172.88l12.12-5.75" stroke-width="1.2" stroke="#000" stroke-miterlimit="10" fill="none"/><path d="M214.422 172.125h8v13h-8zm0 0" fill="#fff"/><use xlink:href="#c" x="214.422" y="182.026" fill="#00f"/><path d="M242.668 167.13l1.086-13.372" stroke-width="1.2" stroke="#000" stroke-miterlimit="10" fill="none"/><path d="M243.754 153.758l1.086-13.375" stroke-width="1.2" stroke="#00f" stroke-miterlimit="10" fill="none"/><path d="M236.594 163.945l.867-10.7" stroke-width="1.2" stroke="#000" stroke-miterlimit="10" fill="none"/><path d="M237.46 153.246l.868-10.7" stroke-width="1.2" stroke="#00f" stroke-miterlimit="10" fill="none"/><path d="M242.668 167.13l11.043 7.628" stroke-width="1.2" stroke="#000" stroke-miterlimit="10" fill="none"/><path d="M253.71 174.758l11.04 7.625M244.84 140.383l-11.043-7.625" stroke-width="1.2" stroke="#00f" stroke-miterlimit="10" fill="none"/><path d="M233.797 132.758l-11.04-7.63" stroke-width="1.2" stroke="#000" stroke-miterlimit="10" fill="none"/><path d="M240.84 133.883h8v13h-8zm0 0" fill="#fff"/><use xlink:href="#c" x="240.84" y="143.784" fill="#00f"/><path d="M222.758 125.13l-24.25 11.495M223.04 131.984l-19.4 9.2M222.758 125.13l2.168-26.747M224.926 98.383l24.25-11.496M224.926 98.383L202.848 83.13" stroke-width="1.2" stroke="#000" stroke-miterlimit="10" fill="none"/><path d="M253.75 173.883h22v17h-22zm0 0" fill="#fff"/><g fill="#00f"><use xlink:href="#c" x="253.75" y="183.784"/><use xlink:href="#b" x="261.733" y="183.784"/></g><use xlink:href="#d" x="269.758" y="188.667" fill="#00f"/></g></svg>
